X: 1
T: Miss Murray of Lintrose
R: march
S: John Bowie of Perth, 1784
B: RSCDS 27-1
M: 2/4
L: 1/8
K: A
   ed \
| "A"c2cB A2E2 | "D"F4 "E7"E2d2 | "A"c2A2 "E7"B2G2 | "A"ABcd "E7"e2ed \
| "A"c2cB A2E2 | "D"F4 "E7"E2d2 | "A"c2A2 "E7"GABG | "A"A4 A2 :|
|: cB \
| "A"A2e2 e2de | "D"f2d2 d2cd | "E7"E2d2 d2cd | "A"e2c2 c2BA \
| "A"E2c2 "D"F2d2 | "A"c4 "E7"B2d2 | "A"c2A2 "E7"GABG | "A"A4 A2 :|
